X: 1
T: Der lustige Bauer F,C,Bb 
T:Hanny Christen. Bd.IX Uri II, Schwyz, Unterwalden I. S.285 (wz10869) orig. F,Bb-Dur
M:3/4
L:1/4
K:F
c/d/ |: "F".a .g .f | .e.d.c | "C7"e>d d | B2 c | e>d d | B2 c | "F"d>c c | A2 c | .a.g.f | 
.e.d.c | "C7"e>d d | B2 c | edc | c'2 e | "F"f e/f/ a/g/ |1 f z c/f/ :|2 f z c/e/ |: [K:C] "G7"g2 ^f | 
g2 ^f/g/ | "C"a2 g/e/ | c2 e | "G7"g2 f/d/ |1 B2 d | "C"e2 c/A/ | G2 c/e/ :|2 "G7"g>f e/d/ | "C"c/e/ g/c/ e/g/ | c' cc ||
|: [K:F] "F"f>g a | z cf | "Gm/Bb"e2d | z dd | "C7"g>a b | z cc | "F"a>gf | z cc | f>ga | zcf | "Gm/Bb"e2d | 
"Gm/Bb"zdd | "C7"g>ab | cde | "F"f e/f/ a/g/ |1 fce :|2 f z d/d/ || [K:Bb] "Bb"def | def | "F7"f/a/ a>g | e2 f/f/ | 
f/a/ a>g | e2 d/d/ | "Bb"def | def | "F7"f/a/ a>g | e2f | .a.g.f | .e.d.c | "Bb"B/d/ f/B/ d/f/ | b zz |]
W: 
W: Teil D (Bb-Dur): vermutl. fehlende Takte 

